assets/intro/pois.svg

<svg width="294" height="248" viewBox="0 0 294 248" fill="none" xmlns="http://www.w3.org/2000/svg">
<g clip-path="url(#clip0_2568_2506)">
<path d="M43.5967 237.561L49.3003 239.154L58.1659 217.934L49.7479 215.583L43.5967 237.561Z" fill="#A0616A"/>
<path d="M58.8201 247.517L40.8936 242.511L42.83 235.592L54.5236 238.858C56.1766 239.319 57.5784 240.418 58.4205 241.912C59.2626 243.406 59.4761 245.173 59.0139 246.825L58.8201 247.517Z" fill="#2F2E41"/>
<path d="M111.635 242.023L117.558 242.023L120.375 219.202L111.634 219.203L111.635 242.023Z" fill="#A0616A"/>
<path d="M128.981 247.516L110.367 247.517L110.366 240.333L122.508 240.332C123.358 240.332 124.2 240.499 124.985 240.824C125.77 241.149 126.484 241.625 127.085 242.225C127.686 242.825 128.163 243.538 128.488 244.322C128.813 245.107 128.981 245.948 128.981 246.797L128.981 247.516Z" fill="#2F2E41"/>
<path d="M67.6238 147.28L53.9917 180.641L109.656 193.133L110.366 174.469L85.09 147.574L67.6238 147.28Z" fill="#B3B3B3"/>
<path d="M97.8254 95.3112C103.992 91.944 106.258 84.2208 102.887 78.061C99.5162 71.9013 91.785 69.6375 85.6188 73.0047C79.4526 76.3719 77.1864 84.0951 80.5572 90.2549C83.9279 96.4147 91.6592 98.6785 97.8254 95.3112Z" fill="#A0616A"/>
<path d="M100.814 145.434L75.618 135.131L73.3747 120.355C72.7141 116.036 73.7457 111.628 76.255 108.05C78.7643 104.471 82.5581 101.996 86.8472 101.141L90.1798 100.472C92.9176 99.9245 95.7478 100.053 98.4247 100.846C101.102 101.639 103.544 103.073 105.54 105.023C107.496 106.89 108.958 109.211 109.796 111.779C110.635 114.347 110.823 117.083 110.346 119.742C109.969 122.021 109.044 124.174 107.65 126.016C99.7348 136.356 100.751 144.951 100.762 145.037L100.814 145.434Z" fill="currentColor"/>
<path d="M111.073 183.969L98.446 163.908L102.423 127.417L96.9292 100.124L97.2213 100.132C100.417 100.21 103.459 101.514 105.719 103.772C107.979 106.031 109.283 109.071 109.36 112.263L114.705 139.007L111.073 183.969Z" fill="#2F2E41"/>
<path d="M111.362 237.709C110.83 237.709 110.314 237.524 109.902 237.187C109.491 236.85 109.208 236.381 109.103 235.86L103.571 208.38C102.561 203.345 100.658 198.531 97.9528 194.165L82.3431 168.941C82.2654 168.815 82.1546 168.714 82.0228 168.647C81.891 168.58 81.7434 168.551 81.5962 168.563C81.4489 168.575 81.3078 168.627 81.1883 168.713C81.0688 168.8 80.9755 168.918 80.9188 169.054L55.255 230.641C55.0487 231.133 54.678 231.539 54.206 231.789C53.734 232.039 53.1898 232.118 52.6661 232.012L45.8104 230.616C45.223 230.499 44.7048 230.157 44.3662 229.664C44.0276 229.17 43.8955 228.564 43.998 227.974L49.5908 195.049C50.7316 188.337 52.6756 181.787 55.3808 175.54L74.3216 131.811L102.274 140.981L104.118 160.533L117.033 191.774C117.926 193.931 118.459 196.22 118.613 198.549L120.999 234.655C121.036 235.257 120.836 235.851 120.441 236.308C120.046 236.765 119.488 237.05 118.886 237.102L111.552 237.701C111.488 237.706 111.425 237.709 111.362 237.709Z" fill="#2F2E41"/>
<path d="M60.3706 192.916L51.509 184.513L68.2561 120.002C69.3187 115.946 71.3108 112.192 74.0751 109.037C76.8395 105.883 80.3003 103.413 84.1842 101.824L84.513 101.691L83.6182 140.954L60.3706 192.916Z" fill="#2F2E41"/>
<path d="M88.7568 96.8234C85.6133 94.1053 84.6572 89.0347 86.5834 85.2966C88.5096 81.5584 93.1153 79.546 97.0535 80.7219C100.763 81.8293 104.979 78.1353 104.527 74.1743C104.075 70.2133 99.1432 67.6331 95.7848 69.6009C93.2415 68.5812 90.4574 68.3172 87.7674 68.8406C85.0775 69.364 82.5961 70.6524 80.6217 72.5511C76.6761 76.4123 75.1793 82.7246 76.9506 88.0324C78.7219 93.3403 83.6662 97.3588 88.7568 96.8234Z" fill="#2F2E41"/>
<path d="M77.6259 200.13C77.4706 200.189 77.309 200.231 77.1442 200.254L56.9128 203.075C56.4234 203.145 55.9247 203.046 55.4988 202.795C55.0728 202.545 54.745 202.157 54.5693 201.695L37.1549 156.428C37.0421 156.135 36.9939 155.822 37.0136 155.508C37.0332 155.195 37.1203 154.889 37.2688 154.613C37.4173 154.336 37.6237 154.094 37.8741 153.905C38.1245 153.715 38.4129 153.581 38.7196 153.513L57.7452 149.272C57.8921 149.239 58.034 149.187 58.1675 149.117L76.6725 139.452C76.8154 139.378 76.9663 139.319 77.1223 139.278L97.4872 133.854C98.0087 133.714 98.5636 133.772 99.0447 134.018C99.5258 134.263 99.8988 134.677 100.092 135.181L115.276 174.651C115.409 174.994 115.453 175.367 115.403 175.732C115.352 176.097 115.21 176.444 114.989 176.739L109.737 183.783C109.49 184.115 109.154 184.37 108.768 184.518L97.2915 188.924C97.2092 188.955 97.1295 188.993 97.053 189.037L77.9293 199.986C77.8321 200.041 77.7306 200.089 77.6259 200.13Z" fill="white"/>
<path d="M87.0386 139.888L84.4525 140.577L77.5994 142.403L77.5872 142.406L68.2047 147.307L64.7228 149.126L64.7212 149.126L59.4917 151.858L59.3483 151.89L53.9158 153.1L51.2902 153.686L40.5815 156.074L57.3928 199.772L68.428 198.234L71.1337 197.856L76.9008 197.051L76.9678 197.042L95.4994 186.432L106.775 182.103L111.923 175.198L97.2887 137.159L87.0386 139.888Z" fill="#E6E6E6"/>
<path d="M99.6996 143.426L43.9497 164.829L44.9044 167.31L100.654 145.908L99.6996 143.426Z" fill="white"/>
<path d="M102.882 151.698L47.1321 173.101L48.0868 175.583L103.837 154.18L102.882 151.698Z" fill="white"/>
<path d="M109.31 168.408L53.5605 189.811L54.5153 192.293L110.265 170.89L109.31 168.408Z" fill="white"/>
<path d="M87.0385 139.888L103.729 183.273L101.245 184.227L84.4524 140.578L87.0385 139.888Z" fill="white"/>
<path d="M68.2049 147.307L64.7777 156.833L63.5893 160.137L60.8172 167.847L60.2233 169.496L59.6289 171.152L58.8461 173.326L53.2277 188.946L51.7671 185.149L56.3481 172.411L57.3845 169.528L57.5365 169.107L58.7622 165.697L60.3086 161.397L61.497 158.092L64.7213 149.126L64.7227 149.126L68.2049 147.307Z" fill="white"/>
<path opacity="0.1" d="M95.9035 186.277L95.4993 186.432L76.9678 197.042L76.9006 197.051L59.3481 151.89L59.4917 151.858L64.7213 149.126L64.7227 149.126L68.2048 147.307L77.5874 142.406L77.5995 142.403L95.9035 186.277Z" fill="black"/>
<path d="M77.7093 200.347C77.5375 200.413 77.3587 200.459 77.1764 200.484L56.945 203.306C56.4033 203.383 55.8515 203.274 55.3802 202.996C54.9089 202.719 54.5461 202.289 54.3516 201.778L36.9372 156.512C36.8124 156.188 36.7591 155.84 36.7809 155.494C36.8026 155.147 36.8989 154.809 37.0633 154.503C37.2276 154.196 37.4561 153.929 37.7332 153.719C38.0102 153.509 38.3293 153.361 38.6688 153.286L57.6943 149.044C57.8212 149.016 57.944 148.971 58.0594 148.911L76.5644 139.246C76.7225 139.163 76.8894 139.098 77.062 139.052L97.4271 133.629C98.0042 133.474 98.6184 133.539 99.1507 133.81C99.683 134.081 100.096 134.54 100.309 135.098L115.493 174.567C115.641 174.948 115.689 175.359 115.634 175.764C115.578 176.168 115.42 176.551 115.176 176.878L109.924 183.922C109.651 184.289 109.279 184.571 108.851 184.735L97.375 189.141C97.3039 189.168 97.2349 189.201 97.1687 189.239L78.0452 200.188C77.9375 200.249 77.8252 200.303 77.7093 200.347ZM38.662 154.258C38.2939 154.4 37.9971 154.681 37.8369 155.041C37.6767 155.401 37.6661 155.81 37.8076 156.178L55.2219 201.444C55.3415 201.758 55.5645 202.022 55.8542 202.193C56.1439 202.364 56.4832 202.431 56.8161 202.383L77.0475 199.562C77.2356 199.535 77.4169 199.474 77.5817 199.379L96.7053 188.431C96.8128 188.369 96.9249 188.316 97.0405 188.271L108.517 183.866C108.78 183.765 109.008 183.592 109.176 183.366L114.428 176.322C114.578 176.121 114.675 175.885 114.709 175.637C114.743 175.388 114.714 175.135 114.623 174.901L99.4387 135.432C99.3076 135.089 99.0539 134.807 98.7267 134.64C98.3995 134.473 98.0221 134.434 97.6673 134.529L77.3024 139.952C77.1965 139.981 77.094 140.021 76.9967 140.071L58.4914 149.736C58.3036 149.834 58.104 149.907 57.8976 149.953L38.872 154.195C38.8005 154.211 38.7303 154.232 38.662 154.258Z" fill="#E6E6E6"/>
<path d="M53.9158 153.1L71.1335 197.856L68.4281 198.234L51.29 153.686L53.9158 153.1Z" fill="white"/>
<path d="M58.8677 171.165C59.5536 171.165 60.1097 170.61 60.1097 169.925C60.1097 169.24 59.5536 168.684 58.8677 168.684C58.1818 168.684 57.6257 169.24 57.6257 169.925C57.6257 170.61 58.1818 171.165 58.8677 171.165Z" fill="#3F3D56"/>
<path d="M102.904 172.488C103.59 172.488 104.146 171.932 104.146 171.247C104.146 170.562 103.59 170.007 102.904 170.007C102.218 170.007 101.662 170.562 101.662 171.247C101.662 171.932 102.218 172.488 102.904 172.488Z" fill="currentColor"/>
<path d="M103.407 148.838C104.817 152.502 103.12 164.645 102.524 168.543C102.505 168.666 102.454 168.783 102.375 168.88C102.297 168.977 102.194 169.052 102.077 169.097C101.96 169.142 101.834 169.155 101.71 169.135C101.586 169.116 101.47 169.063 101.373 168.984C98.3174 166.489 88.9173 158.606 87.5078 154.942C87.1066 153.899 86.9149 152.788 86.9438 151.671C86.9726 150.554 87.2214 149.454 87.6759 148.433C88.1303 147.412 88.7817 146.491 89.5926 145.721C90.4036 144.952 91.3583 144.35 92.4023 143.949C93.4462 143.548 94.559 143.357 95.677 143.386C96.795 143.414 97.8964 143.663 98.9183 144.117C99.9402 144.571 100.863 145.222 101.633 146.032C102.403 146.842 103.006 147.796 103.407 148.838Z" fill="currentColor"/>
<path d="M95.4573 156.499C98.005 156.499 100.07 154.435 100.07 151.89C100.07 149.345 98.005 147.282 95.4573 147.282C92.9096 147.282 90.8442 149.345 90.8442 151.89C90.8442 154.435 92.9096 156.499 95.4573 156.499Z" fill="white"/>
<path d="M89.5318 141.947C89.7185 141.263 90.0531 140.627 90.5122 140.086C90.9712 139.545 91.5435 139.11 92.1887 138.814C92.8339 138.517 93.5364 138.366 94.2465 138.37C94.9567 138.374 95.6574 138.534 96.2992 138.837L104.534 131.401L110.279 135.298L98.5014 145.637C97.919 146.68 96.9738 147.473 95.8449 147.867C94.7159 148.26 93.4817 148.226 92.3761 147.772C91.2705 147.317 90.3702 146.473 89.846 145.399C89.3218 144.326 89.21 143.097 89.5318 141.947Z" fill="#A0616A"/>
<path d="M102.801 144.374L96.3457 135.623L111.062 126.214L100.514 111.178C99.6526 109.95 99.2747 108.447 99.4532 106.957C99.6317 105.468 100.354 104.096 101.482 103.106C102.61 102.115 104.063 101.575 105.565 101.589C107.067 101.603 108.51 102.17 109.62 103.181L122.827 115.218C124.085 116.365 125.061 117.786 125.679 119.371C126.297 120.956 126.541 122.663 126.391 124.357C126.24 126.052 125.701 127.689 124.813 129.141C123.926 130.593 122.715 131.82 121.275 132.728L102.801 144.374Z" fill="#2F2E41"/>
<path d="M52.2257 167.336C52.8092 166.932 53.2969 166.405 53.6544 165.792C54.0119 165.179 54.2305 164.495 54.2948 163.788C54.3591 163.082 54.2676 162.37 54.0266 161.702C53.7857 161.035 53.4012 160.429 52.9002 159.926L57.1674 149.688L51.5721 145.58L45.7492 160.122C44.9593 161.019 44.5262 162.174 44.5318 163.368C44.5374 164.563 44.9815 165.714 45.7798 166.603C46.5781 167.492 47.6752 168.058 48.8632 168.193C50.0512 168.328 51.2476 168.024 52.2257 167.336Z" fill="#A0616A"/>
<path d="M55.1089 156.942L45.0171 154.594L52.5375 132.931C53.8335 129.193 55.7454 125.697 58.1944 122.589L70.4633 107.003C71.5854 105.578 73.2273 104.655 75.0294 104.436C76.8316 104.217 78.647 104.721 80.078 105.837C81.5091 106.953 82.439 108.59 82.6643 110.389C82.8895 112.189 82.3915 114.004 81.2796 115.438L67.6655 132.99L55.1089 156.942Z" fill="#2F2E41"/>
<path d="M178.094 248H0.466214C0.342566 248 0.223976 247.951 0.136543 247.864C0.0491114 247.776 0 247.658 0 247.534C0 247.411 0.0491114 247.292 0.136543 247.205C0.223976 247.118 0.342566 247.069 0.466214 247.069H178.094C178.217 247.069 178.336 247.118 178.423 247.205C178.511 247.292 178.56 247.411 178.56 247.534C178.56 247.658 178.511 247.776 178.423 247.864C178.336 247.951 178.217 248 178.094 248Z" fill="#CCCCCC"/>
<path d="M246.994 247.767H242.798V2.09577C242.798 1.53994 243.019 1.00687 243.413 0.61384C243.806 0.220806 244.34 0 244.896 0C245.453 0 245.986 0.220806 246.38 0.61384C246.773 1.00687 246.994 1.53994 246.994 2.09577V247.767Z" fill="#E6E6E6"/>
<path d="M277.397 248H212.127C212.004 248 211.885 247.951 211.798 247.864C211.71 247.776 211.661 247.658 211.661 247.534C211.661 247.411 211.71 247.292 211.798 247.205C211.885 247.118 212.004 247.069 212.127 247.069H277.397C277.521 247.069 277.64 247.118 277.727 247.205C277.814 247.292 277.864 247.411 277.864 247.534C277.864 247.658 277.814 247.776 277.727 247.864C277.64 247.951 277.521 248 277.397 248Z" fill="#CCCCCC"/>
<path d="M276.109 32.1352H215.059C214.502 32.1346 213.969 31.9136 213.576 31.5207C213.183 31.1278 212.961 30.5951 212.961 30.0395V12.3418C212.961 11.7862 213.183 11.2535 213.576 10.8606C213.969 10.4677 214.502 10.2467 215.059 10.246H276.114C276.472 10.2463 276.824 10.3378 277.136 10.5119L292.924 19.3136C293.25 19.495 293.521 19.7598 293.71 20.0806C293.899 20.4014 293.999 20.7668 294 21.139C294.001 21.5113 293.902 21.8771 293.715 22.1988C293.527 22.5204 293.257 22.7863 292.932 22.9692L277.14 31.8651C276.825 32.0419 276.47 32.135 276.109 32.1352Z" fill="currentColor"/>
<path d="M270.538 70.3249H209.487C209.126 70.3246 208.772 70.2316 208.457 70.0547L192.664 61.1588C192.34 60.976 192.07 60.71 191.882 60.3884C191.694 60.0667 191.596 59.701 191.597 59.3287C191.598 58.9564 191.698 58.591 191.887 58.2702C192.076 57.9494 192.347 57.6847 192.672 57.5033L208.461 48.7015C208.773 48.5274 209.125 48.4359 209.483 48.4357H270.538C271.094 48.4363 271.628 48.6573 272.021 49.0502C272.414 49.4431 272.635 49.9758 272.636 50.5314V68.2291C272.635 68.7847 272.414 69.3174 272.021 69.7103C271.628 70.1032 271.094 70.3242 270.538 70.3249Z" fill="#E6E6E6"/>
<path d="M270.771 107.816H209.72C209.36 107.816 209.005 107.723 208.69 107.546L192.897 98.6499C192.573 98.4671 192.303 98.2011 192.115 97.8795C191.927 97.5578 191.829 97.192 191.83 96.8198C191.831 96.4475 191.931 96.0821 192.12 95.7613C192.309 95.4405 192.58 95.1758 192.905 94.9943L208.694 86.1926C209.006 86.0185 209.358 85.927 209.716 85.9268H270.771C271.327 85.9274 271.861 86.1484 272.254 86.5413C272.647 86.9342 272.869 87.4669 272.869 88.0225V105.72C272.869 106.276 272.647 106.809 272.254 107.201C271.861 107.594 271.327 107.815 270.771 107.816Z" fill="#E6E6E6"/>
</g>
<defs>
<clipPath id="clip0_2568_2506">
<rect width="294" height="248" fill="white"/>
</clipPath>
</defs>
</svg>

<svg width="294" height="248" viewBox="0 0 294 248" xmlns="http://www.w3.org/2000/svg"><g clip-path="url(#a)"><path d="m43.597 237.561 5.703 1.593 8.866-21.22-8.418-2.351-6.151 21.978Z" fill="#A0616A"/><path d="m58.82 247.517-17.926-5.006 1.936-6.919 11.694 3.266a6.46 6.46 0 0 1 4.49 7.967l-.194.692Z" fill="#2F2E41"/><path d="M111.635 242.023h5.923l2.817-22.821-8.741.001.001 22.82Z" fill="#A0616A"/><path d="m128.981 247.516-18.614.001-.001-7.184 12.142-.001a6.476 6.476 0 0 1 5.98 3.99c.325.785.493 1.626.493 2.475v.719Z" fill="#2F2E41"/><path d="m67.624 147.28-13.632 33.361 55.664 12.492.71-18.664-25.276-26.895-17.466-.294Z" fill="#B3B3B3"/><path d="M97.825 95.311c6.167-3.367 8.433-11.09 5.062-17.25-3.37-6.16-11.102-8.424-17.268-5.056-6.166 3.367-8.433 11.09-5.062 17.25 3.37 6.16 11.102 8.424 17.268 5.056Z" fill="#A0616A"/><path d="m100.814 145.434-25.196-10.303-2.243-14.776a16.964 16.964 0 0 1 2.88-12.305 16.993 16.993 0 0 1 10.592-6.909l3.333-.669a17.173 17.173 0 0 1 15.36 4.551 16.353 16.353 0 0 1 4.806 14.719 14.25 14.25 0 0 1-2.696 6.274c-7.915 10.34-6.899 18.935-6.888 19.021l.052.397Z" fill="currentColor"/><path d="m111.073 183.969-12.627-20.061 3.977-36.491-5.494-27.293.292.008a12.453 12.453 0 0 1 8.498 3.64 12.43 12.43 0 0 1 3.641 8.491l5.345 26.744-3.632 44.962Z" fill="#2F2E41"/><path d="M111.362 237.709a2.307 2.307 0 0 1-2.259-1.849l-5.532-27.48a43.074 43.074 0 0 0-5.618-14.215l-15.61-25.224a.802.802 0 0 0-1.424.113l-25.664 61.587a2.31 2.31 0 0 1-2.589 1.371l-6.856-1.396a2.297 2.297 0 0 1-1.812-2.642l5.593-32.925a84.888 84.888 0 0 1 5.79-19.509l18.94-43.729 27.953 9.17 1.844 19.552 12.915 31.241a21.404 21.404 0 0 1 1.58 6.775l2.386 36.106a2.312 2.312 0 0 1-2.113 2.447l-7.334.599a2.434 2.434 0 0 1-.19.008Z" fill="#2F2E41"/><path d="m60.37 192.916-8.861-8.403 16.747-64.511a27.037 27.037 0 0 1 15.928-18.178l.329-.133-.895 39.263-23.247 51.962ZM88.757 96.823c-3.144-2.718-4.1-7.788-2.174-11.526 1.927-3.739 6.532-5.751 10.47-4.575 3.71 1.107 7.926-2.587 7.474-6.548-.452-3.96-5.384-6.54-8.742-4.573a14.238 14.238 0 0 0-15.163 2.95c-3.946 3.861-5.443 10.174-3.671 15.481 1.77 5.308 6.715 9.327 11.806 8.791Z" fill="#2F2E41"/><path d="M77.626 200.13a2.222 2.222 0 0 1-.482.124l-20.231 2.821a2.178 2.178 0 0 1-2.344-1.38l-17.414-45.267a2.178 2.178 0 0 1 .72-2.523c.25-.19.538-.324.845-.392l19.025-4.241c.147-.033.289-.085.422-.155l18.505-9.665a2.19 2.19 0 0 1 .45-.174l20.365-5.424a2.181 2.181 0 0 1 2.605 1.327l15.184 39.47a2.177 2.177 0 0 1-.287 2.088l-5.252 7.044a2.181 2.181 0 0 1-.969.735l-11.477 4.406a1.634 1.634 0 0 0-.238.113l-19.124 10.949a2.373 2.373 0 0 1-.303.144Z" fill="#fff"/><path d="m87.039 139.888-2.587.689-6.853 1.826-.012.003-9.382 4.901-3.482 1.819h-.002l-5.23 2.732-.143.032-5.432 1.21-2.626.586-10.709 2.388 16.812 43.698 11.035-1.538 2.706-.378 5.767-.805.067-.009 18.531-10.61 11.276-4.329 5.148-6.905-14.634-38.039-10.25 2.729Z" fill="#E6E6E6"/><path d="m99.7 143.426-55.75 21.403.954 2.481 55.75-21.402-.954-2.482ZM102.882 151.698l-55.75 21.403.955 2.482 55.75-21.403-.955-2.482ZM109.31 168.408l-55.75 21.403.955 2.482 55.75-21.403-.955-2.482Z" fill="#fff"/><path d="m87.038 139.888 16.691 43.385-2.484.954-16.793-43.649 2.587-.69ZM68.205 147.307l-3.427 9.526-1.189 3.304-2.772 7.71-.594 1.649-.594 1.656-.783 2.174-5.618 15.62-1.46-3.797 4.58-12.738 1.037-2.883.151-.421 1.226-3.41 1.547-4.3 1.188-3.305 3.224-8.966h.002l3.482-1.819Z" fill="#fff"/><path opacity=".1" d="m95.903 186.277-.404.155-18.531 10.61-.067.009-17.553-45.161.144-.032 5.23-2.732 3.483-1.819 9.382-4.901.013-.003 18.303 43.874Z"/><path d="M77.71 200.347c-.172.066-.351.112-.534.137l-20.231 2.822a2.412 2.412 0 0 1-2.593-1.528l-17.415-45.266a2.413 2.413 0 0 1 .796-2.793 2.41 2.41 0 0 1 .936-.433l19.025-4.242c.127-.028.25-.073.365-.133l18.505-9.665a2.4 2.4 0 0 1 .498-.194l20.365-5.423a2.418 2.418 0 0 1 2.882 1.469l15.184 39.469a2.407 2.407 0 0 1-.317 2.311l-5.252 7.044a2.413 2.413 0 0 1-1.073.813l-11.476 4.406c-.071.027-.14.06-.206.098l-19.124 10.949c-.108.061-.22.115-.336.159Zm-39.048-46.089a1.488 1.488 0 0 0-.854 1.92l17.414 45.266a1.483 1.483 0 0 0 1.594.939l20.231-2.821c.189-.027.37-.088.535-.183l19.123-10.948c.108-.062.22-.115.335-.16l11.477-4.405c.263-.101.491-.274.659-.5l5.252-7.044a1.483 1.483 0 0 0 .195-1.421l-15.184-39.469a1.484 1.484 0 0 0-1.772-.903l-20.365 5.423a1.585 1.585 0 0 0-.305.119l-18.506 9.665a2.423 2.423 0 0 1-.593.217l-19.026 4.242a1.528 1.528 0 0 0-.21.063Z" fill="#E6E6E6"/><path d="m53.916 153.1 17.218 44.756-2.706.378-17.138-44.548 2.626-.586Z" fill="#fff"/><path d="M58.868 171.165a1.24 1.24 0 1 0 .002-2.482 1.24 1.24 0 0 0-.002 2.482Z" fill="#3F3D56"/><path d="M102.904 172.488a1.242 1.242 0 1 0 0-2.483 1.242 1.242 0 0 0 0 2.483ZM103.407 148.838c1.41 3.664-.287 15.807-.883 19.705a.704.704 0 0 1-.447.554.706.706 0 0 1-.704-.113c-3.056-2.495-12.456-10.378-13.865-14.042a8.497 8.497 0 0 1 2.085-9.221 8.526 8.526 0 0 1 12.04.311 8.51 8.51 0 0 1 1.774 2.806Z" fill="currentColor"/><path d="M95.457 156.499a4.611 4.611 0 0 0 4.613-4.609 4.61 4.61 0 0 0-4.613-4.608 4.61 4.61 0 0 0-4.613 4.608 4.611 4.611 0 0 0 4.613 4.609Z" fill="#fff"/><path d="M89.532 141.947a4.852 4.852 0 0 1 2.657-3.133 4.855 4.855 0 0 1 4.11.023l8.235-7.436 5.745 3.897-11.778 10.339a4.885 4.885 0 0 1-8.97-3.69Z" fill="#A0616A"/><path d="m102.801 144.374-6.455-8.751 14.716-9.409-10.548-15.036a6.089 6.089 0 0 1 .968-8.072 6.099 6.099 0 0 1 8.138.075l13.207 12.037a11.055 11.055 0 0 1 3.564 9.139 11.046 11.046 0 0 1-5.116 8.371l-18.474 11.646Z" fill="#2F2E41"/><path d="M52.226 167.336a4.85 4.85 0 0 0 .674-7.41l4.267-10.238-5.595-4.108-5.823 14.542a4.877 4.877 0 0 0 3.114 8.071 4.885 4.885 0 0 0 3.363-.857Z" fill="#A0616A"/><path d="m55.109 156.942-10.092-2.348 7.52-21.663a35.5 35.5 0 0 1 5.657-10.342l12.27-15.586a6.866 6.866 0 0 1 9.614-1.166 6.853 6.853 0 0 1 1.202 9.601L67.665 132.99 55.11 156.942Z" fill="#2F2E41"/><path d="M178.094 248H.466a.468.468 0 0 1-.466-.466.465.465 0 0 1 .466-.465h177.628a.466.466 0 0 1 0 .931Z" fill="#CCC"/><path d="M246.994 247.767h-4.196V2.096a2.098 2.098 0 0 1 4.196 0v245.671Z" fill="#E6E6E6"/><path d="M277.397 248h-65.27a.466.466 0 0 1 0-.931h65.27a.467.467 0 0 1 .33.795.467.467 0 0 1-.33.136Z" fill="#CCC"/><path d="M276.109 32.135h-61.05a2.1 2.1 0 0 1-2.098-2.095V12.341a2.096 2.096 0 0 1 2.098-2.096h61.055c.358 0 .71.092 1.022.266l15.788 8.802a2.094 2.094 0 0 1 .008 3.655l-15.792 8.896c-.315.177-.67.27-1.031.27Z" fill="currentColor"/><path d="M270.538 70.325h-61.051c-.361 0-.715-.093-1.03-.27l-15.793-8.896a2.104 2.104 0 0 1-1.067-1.83 2.096 2.096 0 0 1 1.075-1.826l15.789-8.801a2.1 2.1 0 0 1 1.022-.266h61.055a2.102 2.102 0 0 1 2.098 2.095V68.23a2.1 2.1 0 0 1-2.098 2.096ZM270.771 107.816H209.72c-.36 0-.715-.093-1.03-.27l-15.793-8.896a2.104 2.104 0 0 1-1.067-1.83 2.096 2.096 0 0 1 1.075-1.826l15.789-8.801a2.1 2.1 0 0 1 1.022-.266h61.055a2.102 2.102 0 0 1 2.098 2.095v17.698a2.103 2.103 0 0 1-2.098 2.096Z" fill="#E6E6E6"/></g><defs><clipPath id="a"><path fill="#fff" d="M0 0h294v248H0z"/></clipPath></defs></svg>
